X: 100491
T: John Whelan's
S: "Treoir" 
Z: B.Black
M: 4/4
L: 1/8
R: reel 
K: Gdor
BGAF GFDC | DGGF GFDC | BGBd fdcB | AFFE FAdc |
BGAF GFDC | DGG^F G3 A | BD D2 AD D2 |1\
dcBA G4 :|2 dcBA G3 ||
A | BGAd dcBA | Ggg^f g^fdc | BGdc BAGF |\
DGG^F G3 A |
Bdfd gfdc | BdcB AF F2 | BGag fc c2 | dcBA G3 :|
